findly-builder/apps/searchassist/src/assets/icons/content/latest-content-icons/blue-calendar.svg

<svg width="11" height="12" viewBox="0 0 11 12" fill="none" xmlns="http://www.w3.org/2000/svg">
<path fill-rule="evenodd" clip-rule="evenodd" d="M8.26583 0.555664C8.51012 0.555664 8.71072 0.742696 8.73226 0.981375L8.73417 1.024V1.66147H9.64808C9.90674 1.66147 10.1164 1.87115 10.1164 2.1298V10.9762C10.1164 11.2349 9.90674 11.4446 9.64808 11.4446H0.801673C0.543017 11.4446 0.333334 11.2349 0.333334 10.9762V2.1298C0.333334 1.87115 0.543017 1.66147 0.801673 1.66147H1.71559V1.024C1.71559 0.765347 1.92527 0.555664 2.18392 0.555664C2.42821 0.555664 2.62881 0.742696 2.65035 0.981375L2.65226 1.024V1.66147H7.79749V1.024C7.79749 0.765347 8.00717 0.555664 8.26583 0.555664ZM9.17968 4.14952V2.59792H1.27001V4.14952H9.17968ZM1.27001 5.0862H9.17968V10.5079H1.27001V5.0862Z" fill="#0D6EFD"/>
</svg>

<svg width="11" height="12" fill="none" xmlns="http://www.w3.org/2000/svg"><path fill-rule="evenodd" clip-rule="evenodd" d="M8.266.556c.244 0 .445.187.466.425l.002.043v.637h.914c.259 0 .468.21.468.469v8.846c0 .259-.21.469-.468.469H.802a.468.468 0 0 1-.469-.469V2.13c0-.259.21-.469.469-.469h.914v-.637A.468.468 0 0 1 2.65.981l.002.043v.637h5.145v-.637c0-.259.21-.468.469-.468ZM9.18 4.15V2.598H1.27V4.15h7.91Zm-7.91.936h7.91v5.422H1.27V5.086Z" fill="#0D6EFD"/></svg>
